X: 1
T: Prince Of Wales, The
M: 4/4
L: 1/8
R: reel
K: Amaj
a|c2BA AAAB|ceeA feca|c2 BA AAAc|Bcac BBBa|
c2 BA AAAB|ceeA feca|ddde feaf|ecdB AAA||
a|cAeA fAed|cAeA feca|cAeA fAec|Bcac BBBa|
cAeA fAed|cAeA fece|ddde feaf|ecdB AAA||
